icons/default/Music.svg

<path
	d="M9 6.117L20 5V16.013C20 16.6999 19.7643 17.366 19.3323 17.9C18.9002 18.434 18.298 18.8036 17.6262 18.947C16.9544 19.0904 16.2538 18.9989 15.6414 18.6878C15.029 18.3767 14.5418 17.8649 14.2614 17.2378C13.981 16.6108 13.9242 15.9065 14.1006 15.2426C14.277 14.5788 14.6759 13.9955 15.2306 13.5904C15.7853 13.1853 16.4623 12.9828 17.1483 13.0167C17.8344 13.0507 18.488 13.3191 19 13.777V9.057L10 10.05V17.013C10 17.6999 9.76431 18.366 9.33226 18.9C8.90021 19.434 8.29799 19.8036 7.62622 19.947C6.95444 20.0904 6.25381 19.9989 5.64139 19.6878C5.02896 19.3767 4.54184 18.8649 4.2614 18.2378C3.98097 17.6108 3.92421 16.9065 4.10062 16.2426C4.27702 15.5788 4.6759 14.9955 5.23061 14.5904C5.78532 14.1853 6.46226 13.9828 7.14832 14.0167C7.83438 14.0507 8.48802 14.3191 9 14.777V6.117ZM10 7.021V9.043L19 8.05V6.107L10 7.021ZM9 17.013C9 16.4826 8.78929 15.9739 8.41422 15.5988C8.03914 15.2237 7.53043 15.013 7 15.013C6.46957 15.013 5.96086 15.2237 5.58579 15.5988C5.21072 15.9739 5 16.4826 5 17.013C5 17.5434 5.21072 18.0521 5.58579 18.4272C5.96086 18.8023 6.46957 19.013 7 19.013C7.53043 19.013 8.03914 18.8023 8.41422 18.4272C8.78929 18.0521 9 17.5434 9 17.013ZM19 16.013C19 15.4826 18.7893 14.9739 18.4142 14.5988C18.0391 14.2237 17.5304 14.013 17 14.013C16.4696 14.013 15.9609 14.2237 15.5858 14.5988C15.2107 14.9739 15 15.4826 15 16.013C15 16.5434 15.2107 17.0521 15.5858 17.4272C15.9609 17.8023 16.4696 18.013 17 18.013C17.5304 18.013 18.0391 17.8023 18.4142 17.4272C18.7893 17.0521 19 16.5434 19 16.013Z" />

<path d="M9 6.117 20 5v11.013a3 3 0 1 1-1-2.236v-4.72l-9 .993v6.963a3 3 0 1 1-1-2.236v-8.66Zm1 .904v2.022l9-.993V6.107l-9 .914Zm-1 9.992a2 2 0 1 0-4 0 2 2 0 0 0 4 0Zm10-1a2 2 0 1 0-4 0 2 2 0 0 0 4 0Z"/>
